Numix-GalliumOS/scalable/devices/multimedia-player-apple-ipod-touch-symbolic.svg

<svg xmlns="http://www.w3.org/2000/svg" viewBox="0 0 16 16">
 <path d="m 4 0 c -1 0 -2 1 -2 2 l 0 12 c 0 1 1 2 2 2 l 8 0 c 1 0 2 -1 2 -2 l 0 -12 c 0 -1 -1.103 -2 -2 -2 z m 3 1 2 0 c 0.554 0 1 0.223 1 0.5 0 0.277 -0.446 0.5 -1 0.5 l -2 0 c -0.554 0 -1 -0.223 -1 -0.5 0 -0.277 0.446 -0.5 1 -0.5 z m -3 2 8 0 0 10 -8 0 z m 4 10.5 c 0.552 0 1 0.448 1 1 0 0.552 -0.448 1 -1 1 -0.552 0 -1 -0.448 -1 -1 0 -0.552 0.448 -1 1 -1 z" style="fill:#bebebe;color:#000"/>
</svg>

<?xml version="1.0" encoding="UTF-8" standalone="no"?>
<svg
   xmlns:dc="http://purl.org/dc/elements/1.1/"
   xmlns:cc="http://creativecommons.org/ns#"
   xmlns:rdf="http://www.w3.org/1999/02/22-rdf-syntax-ns#"
   xmlns:svg="http://www.w3.org/2000/svg"
   xmlns="http://www.w3.org/2000/svg"
   xmlns:sodipodi="http://sodipodi.sourceforge.net/DTD/sodipodi-0.dtd"
   xmlns:inkscape="http://www.inkscape.org/namespaces/inkscape"
   width="16"
   viewBox="0 0 16 16"
   height="16"
   id="svg2"
   version="1.1"
   inkscape:version="0.48.4 r9939"
   sodipodi:docname="multimedia-player-apple-ipod-touch-symbolic.svg">
  <metadata
     id="metadata12">
    <rdf:RDF>
      <cc:Work
         rdf:about="">
        <dc:format>image/svg+xml</dc:format>
        <dc:type
           rdf:resource="http://purl.org/dc/dcmitype/StillImage" />
      </cc:Work>
    </rdf:RDF>
  </metadata>
  <defs
     id="defs10" />
  <sodipodi:namedview
     pagecolor="#ffffff"
     bordercolor="#666666"
     borderopacity="1"
     objecttolerance="10"
     gridtolerance="10"
     guidetolerance="10"
     inkscape:pageopacity="0"
     inkscape:pageshadow="2"
     inkscape:window-width="1301"
     inkscape:window-height="744"
     id="namedview8"
     showgrid="true"
     inkscape:zoom="35.261719"
     inkscape:cx="8.0567187"
     inkscape:cy="10.756667"
     inkscape:window-x="65"
     inkscape:window-y="24"
     inkscape:window-maximized="1"
     inkscape:current-layer="svg2">
    <inkscape:grid
       type="xygrid"
       id="grid2989" />
  </sodipodi:namedview>
  <path
     style="line-height:normal;color:#000000;fill:#bebebe"
     d="M 4,0 C 3,0 2,1 2,2 l 0,12 c 0,1 1,2 2,2 l 8,0 c 1,0 2,-1 2,-2 L 14,2 C 14,1 12.896521,0 12,0 z M 7,1 9,1 C 9.554,1 10,1.223 10,1.5 10,1.777 9.554,2 9,2 L 7,2 C 6.446,2 6,1.777 6,1.5 6,1.223 6.446,1 7,1 z m -3,2 8,0 0,10 -8,0 z m 4,10.5 c 0.5522848,0 1,0.447715 1,1 0,0.552285 -0.4477152,1 -1,1 -0.5522848,0 -1,-0.447715 -1,-1 0,-0.552285 0.4477152,-1 1,-1 z"
     id="path6"
     inkscape:connector-curvature="0"
     sodipodi:nodetypes="sssssssssssssssscccccsssss" />
</svg>
